!! 00000] TT[00
!!!OTL: Liuzhou you ge liyuyan
!!!ARE: Asia, China,Guangxi
!! Ethnic Group: Han
!! Zhongguo Minge Xuan, S. 176
!!!SCT: C1161
!!!YEM: Copyright 1995, estate of Helmut Schaffrath.
**kern
*ICvox
*Ivox
*M2/4
*k[f#]
*G:
{8b
8b
8b
16a
8b
=1
8g
16g
16a
8b
16a
16b
=2
16dd
16b
8a
[4a
=3
16a]
16g
16f#
16e
8g
8r}
=4
{8b
8a
8a
8e
=5
8g
16e
16d
4g
=6
8a
16a
16g
8e
8d
=7
4e
4d}
=8
{8b
8g
8b
8b
=9
8b
16a
16b
8.g
16a
=10
16dd
16b
8a
[4a
=11
16a]
16g
16e
16d
8g
8r}
=12
{8b
8b
8a
8e
=13
8.g
16e
4g
=14
8.a
16g
8e
8d
=15
4d
4d}
==
!!!AGN: Xiaodiao
!! VorschlÑge, Glissandi. +++ Zwei 32tel Punktierungen zugunsten
!!    des kÅrzesten Notenwertes ausgelassen!
!!    +++++++ Grundton mu· G sein +++++++
!!!ONB: ESAC (Essen Associative Code) Database: CHINA_077
!!!AMT: simple duple
!!!AIN: vox
!!!EED: Helmut Schaffrath
!!!EEV: 1.0
*-
!!!ONB: Tied note syntax fixed by Craig Sapp, 2004/05/03/
